X:3923
T:Maid of Orleans,The. CJF.178
O:england
M:6/8
L:1/8
Q:120
S: C.J.Fox MS, 1829/33, Beverley,E.Yorks.
R:Quadrille
A:East Yorkshire
B:Kidson Coll.Mitchell Lib.M1805
K:G
G>AG G>AG|G>GGB2d|cdd dBG|FAAA2B|
G>AG G>AG|G>AGB2d|c>de dBG|DGGG2zh||
gbg faf|ege def|gdB {c/}BAB|(d^c=c)A2d|
gbg faf|ege def|gdd ecc|dBB cAA|
G>GGB2d|g3d2B|A>BAc2f|a3f2a|
bgg {a/}gfg|efg
a2g|(fd).g (ec).f|(dB)e|" D Capo"(cA).d||


